img/octagon.svg

<svg width="42" height="42" viewBox="0 0 42 42" fill="none" xmlns="http://www.w3.org/2000/svg">
<g filter="url(#filter0_dd_462_1406)">
<path d="M21 18.5H23.9216C24.452 18.5 24.9607 18.2893 25.3358 17.9142L27.9142 15.3358C28.2893 14.9607 28.5 14.452 28.5 13.9216V11V8.07843C28.5 7.54799 28.2893 7.03929 27.9142 6.66421L25.3358 4.08579C24.9607 3.71071 24.452 3.5 23.9216 3.5H21H18.0784C17.548 3.5 17.0393 3.71071 16.6642 4.08579L14.0858 6.66421C13.7107 7.03929 13.5 7.54799 13.5 8.07843V11V13.9216C13.5 14.452 13.7107 14.9607 14.0858 15.3358L16.6642 17.9142C17.0393 18.2893 17.548 18.5 18.0784 18.5H21Z" stroke="#82DBF7" stroke-width="1.5" stroke-linecap="round"/>
</g>
<defs>
<filter id="filter0_dd_462_1406" x="-1" y="-1" width="44" height="44" filterUnits="userSpaceOnUse" color-interpolation-filters="sRGB">
<feFlood flood-opacity="0" result="BackgroundImageFix"/>
<feColorMatrix in="SourceAlpha" type="matrix" values="0 0 0 0 0 0 0 0 0 0 0 0 0 0 0 0 0 0 127 0" result="hardAlpha"/>
<feMorphology radius="4" operator="erode" in="SourceAlpha" result="effect1_dropShadow_462_1406"/>
<feOffset dy="4"/>
<feGaussianBlur stdDeviation="3"/>
<feColorMatrix type="matrix" values="0 0 0 0 0.509804 0 0 0 0 0.858824 0 0 0 0 0.968627 0 0 0 0.16 0"/>
<feBlend mode="normal" in2="BackgroundImageFix" result="effect1_dropShadow_462_1406"/>
<feColorMatrix in="SourceAlpha" type="matrix" values="0 0 0 0 0 0 0 0 0 0 0 0 0 0 0 0 0 0 127 0" result="hardAlpha"/>
<feMorphology radius="3" operator="erode" in="SourceAlpha" result="effect2_dropShadow_462_1406"/>
<feOffset dy="10"/>
<feGaussianBlur stdDeviation="7.5"/>
<feColorMatrix type="matrix" values="0 0 0 0 0.509804 0 0 0 0 0.858824 0 0 0 0 0.968627 0 0 0 0.16 0"/>
<feBlend mode="normal" in2="effect1_dropShadow_462_1406" result="effect2_dropShadow_462_1406"/>
<feBlend mode="normal" in="SourceGraphic" in2="effect2_dropShadow_462_1406" result="shape"/>
</filter>
</defs>
</svg>

<svg width="42" height="42" fill="none" xmlns="http://www.w3.org/2000/svg"><g filter="url(#a)"><path d="M21 18.5h2.922a2 2 0 0 0 1.414-.586l2.578-2.578a2 2 0 0 0 .586-1.414V8.078a2 2 0 0 0-.586-1.414l-2.578-2.578a2 2 0 0 0-1.414-.586h-5.844a2 2 0 0 0-1.414.586l-2.578 2.578a2 2 0 0 0-.586 1.414v5.844a2 2 0 0 0 .586 1.414l2.578 2.578a2 2 0 0 0 1.414.586H21Z" stroke="#82DBF7" stroke-width="1.5" stroke-linecap="round"/></g><defs><filter id="a" x="-1" y="-1" width="44" height="44" filterUnits="userSpaceOnUse" color-interpolation-filters="sRGB"><feFlood flood-opacity="0" result="BackgroundImageFix"/><feColorMatrix in="SourceAlpha" values="0 0 0 0 0 0 0 0 0 0 0 0 0 0 0 0 0 0 127 0" result="hardAlpha"/><feMorphology radius="4" in="SourceAlpha" result="effect1_dropShadow_462_1406"/><feOffset dy="4"/><feGaussianBlur stdDeviation="3"/><feColorMatrix values="0 0 0 0 0.509804 0 0 0 0 0.858824 0 0 0 0 0.968627 0 0 0 0.16 0"/><feBlend in2="BackgroundImageFix" result="effect1_dropShadow_462_1406"/><feColorMatrix in="SourceAlpha" values="0 0 0 0 0 0 0 0 0 0 0 0 0 0 0 0 0 0 127 0" result="hardAlpha"/><feMorphology radius="3" in="SourceAlpha" result="effect2_dropShadow_462_1406"/><feOffset dy="10"/><feGaussianBlur stdDeviation="7.5"/><feColorMatrix values="0 0 0 0 0.509804 0 0 0 0 0.858824 0 0 0 0 0.968627 0 0 0 0.16 0"/><feBlend in2="effect1_dropShadow_462_1406" result="effect2_dropShadow_462_1406"/><feBlend in="SourceGraphic" in2="effect2_dropShadow_462_1406" result="shape"/></filter></defs></svg>
